dist/svg/static/tag-large.svg

<?xml version="1.0" encoding="UTF-8" standalone="no"?>
<svg width="48px" height="48px" viewBox="0 0 48 48" version="1.1" xmlns="http://www.w3.org/2000/svg" xmlns:xlink="http://www.w3.org/1999/xlink">
    <!-- Generator: sketchtool 46.2 (44496) - http://www.bohemiancoding.com/sketch -->
    <title>tag-large</title>
    <desc>Created with sketchtool.</desc>
    <defs></defs>
    <g id="icons-published" stroke="none" stroke-width="1" fill="none" fill-rule="evenodd">
        <g id="briefing" transform="translate(-1152.000000, -2074.000000)"></g>
        <g id="tag-large" stroke="#000000">
            <path d="M12.5,18.5 L28.5,34.5 L12.5,18.5 Z M18.5,12.5 L34.5,28.5 L18.5,12.5 Z M26.5,45.5 L45.5,26.5 L21.5,2.5 L2.5,2.5 L2.5,21.5 L26.5,45.5 Z" id="Shape"></path>
            <circle id="Oval" cx="9" cy="9" r="2.5"></circle>
        </g>
    </g>
</svg>

<svg xmlns="http://www.w3.org/2000/svg" width="48" height="48" viewBox="0 0 48 48"><g fill="none" stroke="currentColor"><path d="M12.5 18.5l16 16m-10-22l16 16m-8 17l19-19-24-24h-19v19l24 24z"/><circle cx="9" cy="9" r="2.5"/></g></svg>
